!!!OTL: "Die Heirath" DER BLINDE JOST HAT ENE DEREN
!!!ARE: Europa, Mitteleuropa, Deutschland, Westfalen
!!!SCT: Z1351
!!!YEM: Copyright 1995, estate of Helmut Schaffrath.
**kern
*ICvox
*Ivox
*M2/4
*k[f#]
*G:
{8d
=1
8g
8b
8a
8g
=2
8f#
8e
8d
8d}
=3
{8e
8g
8f#
8e
=4
8d
8c
8B
8B}
=5
{8e
8e
8d
8d
=6
8e
8e
8d
8r}
=7
{8d
8g
8g
8g
=8
8a
8a
8g
8r}
=9
{4dd
4b
=10
8g
16f#
16e
8d
8r}
=11
{8e
8g
8f#
8e
=12
8d
8c
8B
8r}
=13
{8e
8e
4d
=14
8e
8e
4d}
=15
{8g
8g
8f#
8a
=16
4a
8g}
==
!!!AGN: Zech -, Schalks - Lied; Ehestands - Lied, Bettel - Hochzeit
!!!ONB: ESAC (Essen Associative Code) Database: ZUCCAL
!!!AMT: simple duple
!!!AIN: vox
!!!EED: Helmut Schaffrath
!!!EEV: 1.0
*-
